assets/layer3.svg

<?xml version="1.0" encoding="UTF-8"?><svg xmlns="http://www.w3.org/2000/svg" viewBox="0 0 1108.84 1202.77"><defs><style>.cls-1{fill:#097D37;}.cls-2{fill:#003E19;}.cls-3{fill:none;stroke:#003E19;stroke-linecap:round;stroke-miterlimit:10;stroke-width:4px;}.cls-4{opacity:0;}</style></defs><g id="Layer_1"><rect class="cls-4" y="160.93" width="1024" height="1024"/></g><g id="Layer_4"><path class="cls-1" d="M567.39,518.08l-254.87,474.83c-13.7,25.53-.61,57.21,27.11,65.62l224.77,68.2c24.25,7.36,50.17-4.58,60.35-27.79l224.84-512.88c9.67-22.05-3.38-47.41-26.94-52.36l-198.87-41.85c-22.54-4.74-45.5,5.94-56.4,26.23Z"/><path class="cls-2" d="M333.13,1037.94l221.76,67.58c22.32,6.8,46.23-4.02,55.84-25.29l228.01-504.69c7.08-15.67-2.08-33.89-18.89-37.54l-192.23-41.81c-23.28-5.06-47.09,5.91-58.37,26.89l-253.76,472.04c-8.95,16.65-.43,37.32,17.65,42.83Z"/><path class="cls-1" d="M647.73,499.62l-2.75,4.73c-3.88,6.69-.34,15.62,6.78,17.14l108.12,22.98c9.47,2.01,18.94-3.21,23.08-12.74l2.56-5.89-137.8-26.23Z"/><line class="cls-3" x1="685.22" y1="516.51" x2="720.97" y2="523.99"/><circle class="cls-2" cx="731.04" cy="526.55" r="3.61"/></g></svg>

<svg width="1109" height="1203" viewBox="0 0 1109 1203" fill="none" xmlns="http://www.w3.org/2000/svg">
<path d="M567.39 518.08L312.52 992.91C298.82 1018.44 311.91 1050.12 339.63 1058.53L564.4 1126.73C588.65 1134.09 614.57 1122.15 624.75 1098.94L849.59 586.06C859.26 564.01 846.21 538.65 822.65 533.7L623.78 491.85C601.24 487.11 578.28 497.79 567.38 518.08H567.39Z" fill="#42D9EB"/>
<path d="M333.13 1037.94L554.89 1105.52C577.21 1112.32 601.12 1101.5 610.73 1080.23L838.74 575.54C845.82 559.87 836.66 541.65 819.85 538L627.62 496.19C604.34 491.13 580.53 502.1 569.25 523.08L315.49 995.12C306.54 1011.77 315.06 1032.44 333.14 1037.95L333.13 1037.94Z" fill="#075B65"/>
<path d="M647.73 499.62L644.98 504.35C641.1 511.04 644.64 519.97 651.76 521.49L759.88 544.47C769.35 546.48 778.82 541.26 782.96 531.73L785.52 525.84L647.72 499.61L647.73 499.62Z" fill="#42D9EB"/>
<path d="M685.22 516.51L720.97 523.99" stroke="#075B65" stroke-width="4" stroke-miterlimit="10" stroke-linecap="round"/>
<path d="M731.04 530.16C733.033 530.16 734.65 528.544 734.65 526.55C734.65 524.556 733.033 522.94 731.04 522.94C729.046 522.94 727.43 524.556 727.43 526.55C727.43 528.544 729.046 530.16 731.04 530.16Z" fill="#075B65"/>
</svg>
